src/images/svg/symbols/index25s1-new.svg

<svg width="33" height="32" viewBox="0 0 33 32" fill="none" xmlns="http://www.w3.org/2000/svg">
<path d="M23.166 13.0001H24.666V22H23.166V32H22.166V22H20.666V13.0001H22.166V11.0001H23.166V13.0001Z" fill="#85ACB0"/>
<path d="M30.666 11V18H29.166V22H28.166V18H26.666V11H30.666Z" fill="#85ACB0"/>
<path d="M17.166 20V16H16.166V20H14.666V28H16.166V30H17.166V28H18.666V20H17.166Z" fill="#85ACB0"/>
<path d="M11.166 15H12.666V21H11.166V28H10.166V21H8.66602V15H10.166V13H11.166V15Z" fill="#85ACB0"/>
<path d="M5.16602 19H6.66602V23H5.16602V25H4.16602V23H2.66602V19H4.16602V17H5.16602V19Z" fill="#85ACB0"/>
<path d="M22.666 5C22.666 2.23858 24.9046 0 27.666 0C30.4274 0 32.666 2.23858 32.666 5C32.666 7.76142 30.4274 10 27.666 10C24.9046 10 22.666 7.76142 22.666 5Z" fill="#FF444F"/>
<path d="M24.9204 7.0005V6.2745H26.0484V3.4665H25.9944L25.1424 4.5825L24.5664 4.1325L25.5684 2.8125H26.9484V6.2745H27.8364V7.0005H24.9204Z" fill="white"/>
<path d="M29.4361 7.0725C29.1321 7.0725 28.8761 7.0245 28.6681 6.9285C28.4601 6.8285 28.2741 6.6885 28.1101 6.5085L28.6321 5.9805C28.7441 6.1045 28.8681 6.2025 29.0041 6.2745C29.1401 6.3465 29.2941 6.3825 29.4661 6.3825C29.6421 6.3825 29.7641 6.3565 29.8321 6.3045C29.9001 6.2485 29.9341 6.1745 29.9341 6.0825C29.9341 5.9345 29.8281 5.8465 29.6161 5.8185L29.2741 5.7765C28.5661 5.6885 28.2121 5.3645 28.2121 4.8045C28.2121 4.6525 28.2401 4.5145 28.2961 4.3905C28.3561 4.2625 28.4381 4.1545 28.5421 4.0665C28.6501 3.9745 28.7781 3.9045 28.9261 3.8565C29.0781 3.8045 29.2481 3.7785 29.4361 3.7785C29.6001 3.7785 29.7441 3.7905 29.8681 3.8145C29.9961 3.8345 30.1081 3.8665 30.2041 3.9105C30.3041 3.9505 30.3941 4.0025 30.4741 4.0665C30.5581 4.1265 30.6401 4.1945 30.7201 4.2705L30.2101 4.7925C30.1101 4.6925 29.9961 4.6145 29.8681 4.5585C29.7441 4.4985 29.6161 4.4685 29.4841 4.4685C29.3321 4.4685 29.2241 4.4925 29.1601 4.5405C29.0961 4.5885 29.0641 4.6525 29.0641 4.7325C29.0641 4.8165 29.0861 4.8825 29.1301 4.9305C29.1781 4.9745 29.2661 5.0065 29.3941 5.0265L29.7481 5.0745C30.4401 5.1665 30.7861 5.4825 30.7861 6.0225C30.7861 6.1745 30.7541 6.3145 30.6901 6.4425C30.6261 6.5705 30.5341 6.6825 30.4141 6.7785C30.2981 6.8705 30.1561 6.9425 29.9881 6.9945C29.8241 7.0465 29.6401 7.0725 29.4361 7.0725Z" fill="white"/>
<path d="M0.666016 2C0.666016 0.89543 1.56145 0 2.66602 0H12.666C13.7706 0 14.666 0.895431 14.666 2V8C14.666 9.10457 13.7706 10 12.666 10H2.66602C1.56145 10 0.666016 9.10457 0.666016 8V2Z" fill="#0E0E0E"/>
<path d="M7.27708 8.00031H3.32508V6.90431L5.04508 5.43231C5.19975 5.29898 5.33041 5.17898 5.43708 5.07231C5.54375 4.96031 5.62908 4.85365 5.69308 4.75231C5.76241 4.64565 5.81041 4.54165 5.83708 4.44031C5.86908 4.33898 5.88508 4.22965 5.88508 4.11231V4.00031C5.88508 3.89365 5.86374 3.80031 5.82108 3.72031C5.77841 3.64031 5.72241 3.57365 5.65308 3.52031C5.58375 3.46698 5.50374 3.42698 5.41308 3.40031C5.32774 3.37365 5.23974 3.36031 5.14908 3.36031C5.01575 3.36031 4.89841 3.38165 4.79708 3.42431C4.70108 3.46698 4.61574 3.52565 4.54108 3.60031C4.47174 3.66965 4.41308 3.75231 4.36508 3.84831C4.31708 3.93898 4.27974 4.03765 4.25308 4.14431L3.20508 3.74431C3.26908 3.55231 3.35708 3.37098 3.46908 3.20031C3.58108 3.02431 3.71974 2.87231 3.88508 2.74431C4.05574 2.61098 4.25574 2.50698 4.48508 2.43231C4.71441 2.35765 4.97308 2.32031 5.26108 2.32031C5.56508 2.32031 5.83441 2.36298 6.06908 2.44831C6.30375 2.53365 6.50108 2.65098 6.66108 2.80031C6.82641 2.94965 6.95174 3.12831 7.03708 3.33631C7.12241 3.53898 7.16508 3.76031 7.16508 4.00031C7.16508 4.24031 7.12508 4.45898 7.04508 4.65631C6.96508 4.85365 6.85575 5.04031 6.71708 5.21631C6.58375 5.38698 6.42641 5.54965 6.24508 5.70431C6.06375 5.85898 5.87441 6.01631 5.67708 6.17631L4.63708 6.99231H7.27708V8.00031Z" fill="white"/>
<path d="M11.842 3.46431H9.30595L9.18595 5.23231H9.24995C9.30329 5.09898 9.36195 4.97898 9.42595 4.87231C9.49529 4.76031 9.57529 4.66698 9.66595 4.59231C9.75662 4.51231 9.86595 4.45098 9.99395 4.40831C10.122 4.36565 10.274 4.34431 10.45 4.34431C10.69 4.34431 10.914 4.38431 11.122 4.46431C11.33 4.54431 11.5113 4.66165 11.666 4.81631C11.8206 4.96565 11.9433 5.15231 12.034 5.37631C12.1246 5.59498 12.17 5.84298 12.17 6.12031C12.17 6.40298 12.122 6.66698 12.026 6.91231C11.9353 7.15231 11.7966 7.36031 11.61 7.53631C11.4286 7.71231 11.2046 7.85098 10.938 7.95231C10.6713 8.04831 10.3673 8.09631 10.026 8.09631C9.75395 8.09631 9.51395 8.06698 9.30595 8.00831C9.09795 7.94965 8.91395 7.87231 8.75395 7.77631C8.59395 7.67498 8.45529 7.56031 8.33795 7.43231C8.22062 7.30431 8.11929 7.16831 8.03395 7.02431L8.90595 6.33631C9.02862 6.55498 9.17529 6.74165 9.34595 6.89631C9.51662 7.04565 9.74595 7.12031 10.034 7.12031C10.322 7.12031 10.538 7.03765 10.682 6.87231C10.8313 6.70698 10.906 6.48831 10.906 6.21631V6.15231C10.906 5.89631 10.8313 5.69365 10.682 5.54431C10.5326 5.39498 10.3273 5.32031 10.066 5.32031C9.84729 5.32031 9.66595 5.36565 9.52195 5.45631C9.38329 5.54165 9.27662 5.62698 9.20195 5.71231L8.21795 5.57631L8.42595 2.41631H11.842V3.46431Z" fill="white"/>
</svg>

<svg width="33" height="32" fill="none" xmlns="http://www.w3.org/2000/svg"><path d="M23.166 13h1.5v9h-1.5v10h-1V22h-1.5v-9h1.5v-2h1v2ZM30.666 11v7h-1.5v4h-1v-4h-1.5v-7h4ZM17.166 20v-4h-1v4h-1.5v8h1.5v2h1v-2h1.5v-8h-1.5ZM11.166 15h1.5v6h-1.5v7h-1v-7h-1.5v-6h1.5v-2h1v2ZM5.166 19h1.5v4h-1.5v2h-1v-2h-1.5v-4h1.5v-2h1v2Z" fill="#85ACB0"/><path d="M22.666 5a5 5 0 1 1 10 0 5 5 0 0 1-10 0Z" fill="#FF444F"/><path d="M24.92 7v-.726h1.128V3.466h-.054l-.852 1.116-.576-.45 1.002-1.32h1.38v3.462h.888V7H24.92ZM29.436 7.072c-.304 0-.56-.048-.768-.144-.208-.1-.394-.24-.558-.42l.522-.527c.112.123.236.221.372.293.136.072.29.109.462.109.176 0 .298-.027.366-.079a.273.273 0 0 0 .102-.222c0-.147-.106-.236-.318-.263l-.342-.042c-.708-.088-1.062-.413-1.062-.973 0-.152.028-.29.084-.413a.942.942 0 0 1 .246-.325c.108-.091.236-.161.384-.21.152-.051.322-.077.51-.077.164 0 .308.012.432.035.128.02.24.052.336.096.1.04.19.093.27.156.084.06.166.128.246.205l-.51.522c-.1-.1-.214-.179-.342-.234a.872.872 0 0 0-.384-.09c-.152 0-.26.023-.324.071a.228.228 0 0 0-.096.192c0 .084.022.15.066.199.048.043.136.075.264.096l.354.047c.692.093 1.038.409 1.038.949a.926.926 0 0 1-.096.42c-.064.128-.156.24-.276.336a1.293 1.293 0 0 1-.426.216 1.822 1.822 0 0 1-.552.077Z" fill="#fff"/><path d="M.666 2a2 2 0 0 1 2-2h10a2 2 0 0 1 2 2v6a2 2 0 0 1-2 2h-10a2 2 0 0 1-2-2V2Z" fill="#0E0E0E"/><path d="M7.277 8H3.325V6.904l1.72-1.472a7.32 7.32 0 0 0 .392-.36c.107-.112.192-.218.256-.32.07-.106.117-.21.144-.312.032-.101.048-.21.048-.328V4a.586.586 0 0 0-.232-.48.88.88 0 0 0-.504-.16.901.901 0 0 0-.352.064.844.844 0 0 0-.256.176.945.945 0 0 0-.176.248c-.048.091-.085.19-.112.296l-1.048-.4c.064-.192.152-.373.264-.544.112-.176.25-.328.416-.456.17-.133.37-.237.6-.312a2.5 2.5 0 0 1 .776-.112c.304 0 .573.043.808.128.235.086.432.203.592.352.165.15.29.328.376.536.085.203.128.424.128.664 0 .24-.04.459-.12.656-.08.198-.19.384-.328.56-.133.171-.29.334-.472.488-.181.155-.37.312-.568.472l-1.04.816h2.64V8ZM11.842 3.464H9.306l-.12 1.768h.064c.053-.133.112-.253.176-.36.07-.112.15-.205.24-.28.09-.08.2-.141.328-.184.128-.042.28-.064.456-.064.24 0 .464.04.672.12a1.602 1.602 0 0 1 .912.912c.09.219.136.467.136.744 0 .283-.048.547-.144.792-.09.24-.23.448-.416.624a1.94 1.94 0 0 1-.672.416c-.267.096-.57.144-.912.144a2.66 2.66 0 0 1-.72-.088 2.26 2.26 0 0 1-.552-.232 2.043 2.043 0 0 1-.416-.344 2.457 2.457 0 0 1-.304-.408l.872-.688c.123.219.27.406.44.56.17.15.4.224.688.224.288 0 .504-.082.648-.248.15-.165.224-.384.224-.656v-.064c0-.256-.075-.458-.224-.608-.15-.149-.355-.224-.616-.224-.219 0-.4.046-.544.136-.139.086-.245.171-.32.256l-.984-.136.208-3.16h3.416v1.048Z" fill="#fff"/></svg>
